X:745
T:Tom Jones
L:1/8
C:Rutherford, 1759
Z:vmp.Mike Hicken 2015 www.village-music-project.org.uk
M:6/8
S:Colin Hume's website,  colinhume.com  - chords can also be printed below the stave.
Q:3/8=120
K:D
P:A
|: "D"a3 "A7"g3 | "D"fdf "A7"ecA | "D"d2f "A/C#"ece | "Bm"d2f "A"ecA |\
"D"dcd "A/C#"ede | "Bm"fef "E7"^gfg | "A"a2d "E7"cdB | "A"A6 :|
P:B
|: "D"D2F "A7/C#"E2G | "D"F2A "A7"EFG | "D"F2d "D7/F#"AB=c | "G"B3 "B7/F#"B2F |\
"Em"GFG "D"AGA | "G"BAB "A7"cBc | "D"d2G "A7"FGE | "D"D6 :|

